X:1
T:Title
%%score { ( 1 3 ) | ( 2 4 ) }
L:1/8
M:4/4
K:Db
V:1 treble nm="Grand Piano"
V:3 treble 
V:2 bass 
V:4 bass 
V:1
 z4 z2 z[Q:1/4=92] F | D[CE]FG A [Fd]2 [Fd] | ddBd [FA]3 F | D[CE]FG A [Fd]2 F | EF=GB [CA]3 [CF] | %5
 D[CE]FG A [Fd]2 [Fd] | ddBd [FA]3 [FA] | =GGFE [CE][CA][_Ge][Fd] | c2 BB [A,CA]4 | %9
 z4[K:treble] z .d3 |[M:3/4] d4 z2 |[M:1/4] [FA]2 |[M:4/4] D[CE]FG A [Fd]2 F | E2 =GB [A,CA]4 | %14
 z4[K:treble] z .d3 |[M:3/4] d4 z2 |[M:1/4] [FA][FA] |[M:4/4] B2 dB [FA][FA][Ac][Ad] | %18
[M:7/8] [=Ge] [GB]2 [_Gc] [Fd]3 |] %19
V:2
 z4 z2 z [D,A,D] | [D,F,][A,,A,][D,A,D][E,A,C] [F,A,D] [D,A,]2 [D,_C] | %2
 [G,B,G][G,B,G][G,DG][G,B,G] [D,D]3 [D,A,D] | [D,F,][A,,A,][D,A,D][E,A,C] [F,A,D] [D,A,]2 [D,A,D] | %4
 [E,=G,D][E,A,D][E,B,D][E,G,D] [A,,A,]3 [A,,A,] | %5
 [D,F,][A,,A,][D,A,D][E,A,C] [F,A,D] [D,A,]2 [D,_C] | [G,B,G][G,B,G][G,DG][G,B,G] [D,D]3 [D,D] | %7
 [E,DE][E,DE][E,B,D][E,=G,D] [A,,A,][A,,A,][C,A,][D,A,] | [E,A,E]2 [E,=G,D][E,G,D] A,,4 | %9
 D,A,,D,D, D,[D,B,] .[D,A,]2 |[M:3/4] A,B, .A,2 [D,A,][D,D] |[M:1/4] [D,D]2 | %12
[M:4/4] [D,F,][A,,A,][D,A,D][E,A,C] [F,A,D] [D,A,]2 [D,A,D] | [E,=G,D]2 [E,B,D][E,G,D] A,,4 | %14
 D,A,,D,D, D,[D,B,] .[D,A,]2 |[M:3/4] A,B, .A,2 [D,A,][D,D] |[M:1/4] [D,D][D,D] | %17
[M:4/4] [G,DG]2 [G,B,G][G,DG] [D,D][D,D][F,D][F,D] |[M:7/8] [E,D] [E,D]2 [A,D] [D,D]3 |] %19
V:3
 x8 | x8 | x8 | x8 | x8 | x8 | x8 | x8 | x8 | [F,D][A,CE][K:treble][A,DF][A,EG] [DFA]G .F2 | %10
[M:3/4] FG .F2 [Fd][GB] |[M:1/4] x2 |[M:4/4] x8 | x8 | %14
 [F,D][A,CE][K:treble][A,DF][A,EG] [DFA]G .F2 |[M:3/4] FG .F2 [Fd][GB] |[M:1/4] x2 |[M:4/4] x8 | %18
[M:7/8] x7 |] %19
V:4
 x8 | x8 | x8 | x8 | x8 | x8 | x8 | x8 | x8 | x8 |[M:3/4] D,4 z2 |[M:1/4] x2 |[M:4/4] x8 | x8 | %14
 x8 |[M:3/4] D,4 z2 |[M:1/4] x2 |[M:4/4] x8 |[M:7/8] x7 |] %19

